static/logos/sendgrid-wordmark-color.svg

<svg width="100" height="18" viewBox="0 0 100 18" fill="none" xmlns="http://www.w3.org/2000/svg">
<g clip-path="url(#clip0_1_1141)">
<path fill-rule="evenodd" clip-rule="evenodd" d="M34.5932 11.2019C35.0086 10.2721 35.8794 9.63899 37.0274 9.63899C38.1754 9.63899 39.0265 10.1731 39.3827 11.2019H34.5932ZM42.1138 12.389C42.1138 9.53993 40.0356 7.26483 37.0077 7.26483C34.1577 7.26483 31.8619 9.55967 31.8619 12.4088C31.8619 15.2578 33.9995 17.5527 37.0869 17.5527C39.2252 17.5527 40.763 16.5217 41.6284 15.0436L39.4778 13.7616C39.0215 14.6367 38.1457 15.1787 37.1066 15.1787C35.6816 15.1787 34.7911 14.4662 34.4744 13.3782H42.1138V12.389ZM97.3135 12.389C97.3135 10.925 96.2449 9.73786 94.7806 9.73786C93.2765 9.73786 92.1285 10.8656 92.1285 12.389C92.1285 13.9123 93.2765 15.0599 94.7806 15.0599C96.2449 15.0599 97.3135 13.8531 97.3135 12.389ZM89.4764 12.4088C89.4764 8.90717 92.0493 7.26483 94.2853 7.26483C95.572 7.26483 96.5814 7.73967 97.2346 8.43205V2.9123H99.946V17.3548H97.2346V16.2471C96.5814 17.0187 95.5325 17.5527 94.2458 17.5527C92.1482 17.5527 89.4764 15.8908 89.4764 12.4088ZM87.4846 5.95711C88.3804 5.95711 89.1066 5.23123 89.1066 4.33573C89.1066 3.44023 88.3804 2.71436 87.4846 2.71436C86.5889 2.71436 85.8629 3.44023 85.8629 4.33573C85.8629 5.23123 86.5889 5.95711 87.4846 5.95711ZM86.129 7.46277H88.8403V17.3548H86.129V10.0942L85.145 10.094L86.129 7.46277ZM78.9061 7.46277H81.5977V9.0851C82.0925 8.05632 82.9831 7.46277 84.3288 7.46277H85.4175L84.4344 10.094H83.6955C82.2508 10.094 81.6175 10.8459 81.6175 12.6858V17.3548H78.9061V7.46277ZM63.6527 10.1336C63.6527 6.01837 66.7599 2.71436 71.0348 2.71436C73.1731 2.71436 74.9712 3.48406 76.2731 4.71064C76.803 5.20972 77.2505 5.78462 77.6054 6.41411L75.191 7.87812C74.3003 6.23592 72.9348 5.3852 71.0546 5.3852C68.4223 5.3852 66.3838 7.54186 66.3838 10.1336C66.3838 12.7848 68.3829 14.8818 71.1535 14.8818C73.2515 14.8818 74.7356 13.6948 75.2503 11.8548H70.7181V9.22355H78.2189V10.3314C78.2189 14.2093 75.4483 17.5527 71.1535 17.5527C66.6412 17.5527 63.6527 14.1302 63.6527 10.1336ZM60.3843 12.389C60.3843 10.925 59.3157 9.73786 57.8512 9.73786C56.3471 9.73786 55.199 10.8656 55.199 12.389C55.199 13.9123 56.3471 15.0599 57.8512 15.0599C59.3157 15.0599 60.3843 13.8531 60.3843 12.389ZM52.5471 12.4088C52.5471 8.90717 55.1198 7.26483 57.3563 7.26483C58.6426 7.26483 59.652 7.73967 60.3052 8.43205V2.9123H63.0166V17.3548H60.3052V16.2471C59.652 17.0187 58.6032 17.5527 57.3168 17.5527C55.219 17.5527 52.5471 15.8908 52.5471 12.4088ZM42.7476 7.46277H45.4395V8.57064C46.0726 7.75941 47.0425 7.26483 48.1706 7.26483C50.5058 7.26483 51.9111 8.76844 51.9111 11.3206V17.3548H49.16V11.6767C49.16 10.3512 48.5465 9.57959 47.3395 9.57959C46.3101 9.57959 45.4592 10.2918 45.4592 11.9537V17.3548H42.7476V7.46277ZM20.6094 14.961L23.1231 12.9824C23.8354 14.2093 24.9636 14.9214 26.2498 14.9214C27.6552 14.9214 28.4073 14.0115 28.4073 13.022C28.4073 11.835 26.9623 11.4593 25.4187 10.9842C23.4793 10.3908 21.322 9.63899 21.322 6.86908C21.322 4.55436 23.3409 2.71436 26.1312 2.71436C28.4864 2.71436 29.8322 3.60468 31 4.81166L28.7238 6.53282C28.1302 5.64264 27.2792 5.16765 26.1509 5.16765C24.8645 5.16765 24.1721 5.86018 24.1721 6.77025C24.1721 7.87811 25.5573 8.25426 27.1009 8.76844C29.0605 9.40149 31.277 10.2721 31.277 13.042C31.277 15.3368 29.4561 17.5527 26.2697 17.5527C23.6575 17.5527 21.9159 16.445 20.6094 14.961Z" fill="#212F38"/>
<path fill-rule="evenodd" clip-rule="evenodd" d="M5.80469 17.3548H11.5835V11.578H5.80469V17.3548Z" fill="#9DD6E3"/>
<path fill-rule="evenodd" clip-rule="evenodd" d="M0.03125 11.5783H5.81001V5.80139H0.03125V11.5783Z" fill="#9DD6E3"/>
<path fill-rule="evenodd" clip-rule="evenodd" d="M0.03125 17.3548H5.81001V11.578H0.03125V17.3548Z" fill="#3F72AB"/>
<path fill-rule="evenodd" clip-rule="evenodd" d="M11.5859 11.5783H17.3647V5.80139H11.5859V11.5783Z" fill="#00A9D1"/>
<path fill-rule="evenodd" clip-rule="evenodd" d="M5.80469 5.80154H11.5835V0.0247498H5.80469V5.80154Z" fill="#00A9D1"/>
<path fill-rule="evenodd" clip-rule="evenodd" d="M5.80469 11.5782H11.5835V5.80139H5.80469V11.5782Z" fill="#2191C4"/>
<path fill-rule="evenodd" clip-rule="evenodd" d="M11.5859 5.80154H17.3647V0.0247498H11.5859V5.80154Z" fill="#3F72AB"/>
</g>
<defs>
<clipPath id="clip0_1_1141">
<rect width="100" height="17.5752" fill="white"/>
</clipPath>
</defs>
</svg>

<svg xmlns="http://www.w3.org/2000/svg" width="355.556" height="64" fill="none" viewBox="0 0 100 18"><g fill-rule="evenodd" clip-path="url(#a)" clip-rule="evenodd"><path fill="#212F38" d="M34.593 11.202c.416-.93 1.286-1.563 2.434-1.563 1.148 0 2 .534 2.356 1.563h-4.79Zm7.52 1.187c0-2.85-2.077-5.124-5.105-5.124a5.135 5.135 0 0 0-5.146 5.144c0 2.849 2.137 5.144 5.225 5.144 2.138 0 3.676-1.031 4.541-2.51l-2.15-1.281c-.456.875-1.332 1.417-2.371 1.417-1.425 0-2.316-.713-2.633-1.8h7.64v-.99Zm55.2 0c0-1.464-1.068-2.651-2.532-2.651-1.505 0-2.653 1.128-2.653 2.651s1.148 2.67 2.653 2.67c1.464 0 2.532-1.206 2.532-2.67Zm-7.837.02c0-3.502 2.573-5.144 4.81-5.144 1.286 0 2.295.475 2.949 1.167v-5.52h2.711v14.443h-2.711v-1.108c-.654.772-1.703 1.306-2.99 1.306-2.097 0-4.769-1.662-4.769-5.144Zm-1.991-6.452a1.622 1.622 0 1 0 0-3.243 1.622 1.622 0 0 0 0 3.243Zm-1.356 1.506h2.711v9.892H86.13v-7.26l-.984-.001.984-2.631Zm-7.223 0h2.692v1.622c.495-1.029 1.385-1.622 2.73-1.622h1.09l-.984 2.631h-.739c-1.444 0-2.077.752-2.077 2.592v4.669h-2.712V7.463Zm-15.253 2.67c0-4.115 3.107-7.419 7.382-7.419 2.138 0 3.936.77 5.238 1.997.53.499.978 1.074 1.332 1.703l-2.414 1.464c-.89-1.642-2.256-2.493-4.136-2.493-2.633 0-4.671 2.157-4.671 4.749 0 2.65 1.999 4.748 4.77 4.748 2.097 0 3.582-1.187 4.096-3.027h-4.532V9.224h7.5v1.107c0 3.878-2.77 7.222-7.065 7.222-4.512 0-7.5-3.423-7.5-7.42Zm-3.269 2.256c0-1.464-1.068-2.651-2.533-2.651-1.504 0-2.652 1.128-2.652 2.651s1.148 2.67 2.652 2.67c1.465 0 2.533-1.206 2.533-2.67Zm-7.837.02c0-3.502 2.573-5.144 4.81-5.144 1.286 0 2.295.475 2.948 1.167v-5.52h2.712v14.443h-2.712v-1.108c-.653.772-1.702 1.306-2.988 1.306-2.098 0-4.77-1.662-4.77-5.144Zm-9.8-4.946h2.693V8.57c.633-.812 1.602-1.306 2.73-1.306 2.336 0 3.741 1.503 3.741 4.056v6.034H49.16v-5.678c0-1.326-.613-2.097-1.82-2.097-1.03 0-1.88.712-1.88 2.374v5.4h-2.712V7.464ZM20.61 14.96l2.514-1.979c.712 1.227 1.84 1.94 3.127 1.94 1.405 0 2.157-.91 2.157-1.9 0-1.187-1.445-1.563-2.988-2.038-1.94-.593-4.097-1.345-4.097-4.115 0-2.315 2.019-4.155 4.81-4.155 2.354 0 3.7.89 4.868 2.098l-2.276 1.72c-.594-.89-1.445-1.364-2.573-1.364-1.287 0-1.979.692-1.979 1.602 0 1.108 1.385 1.484 2.929 1.998 1.96.633 4.176 1.504 4.176 4.274 0 2.295-1.82 4.51-5.007 4.51-2.613 0-4.354-1.107-5.66-2.591Z"/><path fill="#9DD6E3" d="M5.805 17.355h5.779v-5.777h-5.78v5.777ZM.031 11.578H5.81V5.801H.031v5.777Z"/><path fill="#3F72AB" d="M.031 17.355H5.81v-5.777H.031v5.777Z"/><path fill="#00A9D1" d="M11.586 11.578h5.779V5.801h-5.78v5.777ZM5.805 5.802h5.779V.025h-5.78v5.777Z"/><path fill="#2191C4" d="M5.805 11.578h5.779V5.801h-5.78v5.777Z"/><path fill="#3F72AB" d="M11.586 5.802h5.779V.025h-5.78v5.777Z"/></g><defs><clipPath id="a"><path fill="#fff" d="M0 0h100v17.575H0z"/></clipPath></defs></svg>
